img/icon1.svg

<svg width="40" height="40" viewBox="0 0 40 40" fill="none" xmlns="http://www.w3.org/2000/svg">
<path d="M39.363 8.83227C39.7149 8.83227 40 8.54719 40 8.19531V4.03398C40 3.68211 39.7149 3.39703 39.363 3.39703H8.01719C7.71086 1.4743 6.04156 0 4.03398 0C1.80969 0 0 1.80969 0 4.03398V25.775C0 26.1269 0.285078 26.412 0.636953 26.412C0.988828 26.412 1.27391 26.1269 1.27391 25.775V4.03398C1.27391 2.51203 2.51203 1.27391 4.03398 1.27391C5.55594 1.27391 6.79406 2.51203 6.79406 4.03398V33.0268C6.07195 32.3482 5.1007 31.9321 4.03398 31.9321C2.96727 31.9321 1.99602 32.3482 1.27391 33.0268V29.2685C1.27391 28.9166 0.988828 28.6316 0.636953 28.6316C0.285078 28.6316 0 28.9166 0 29.2685V35.9661C0 38.1903 1.80969 40 4.03398 40H39.363C39.7149 40 40 39.7149 40 39.363V11.5074C40 11.1555 39.7149 10.8705 39.363 10.8705C39.0112 10.8705 38.7261 11.1555 38.7261 11.5074V38.7261H4.03398C2.51203 38.7261 1.27391 37.488 1.27391 35.966C1.27391 34.4441 2.51203 33.2059 4.03398 33.2059C5.55594 33.2059 6.79406 34.4441 6.79406 35.966C6.79406 36.3179 7.07914 36.603 7.43102 36.603C7.78289 36.603 8.06797 36.3179 8.06797 35.966V4.67094H38.7262V8.19531C38.7261 8.54719 39.0112 8.83227 39.363 8.83227Z" fill="white"/>
<path d="M35.6468 15.0586L23.7572 6.90572C23.5402 6.75689 23.2537 6.75689 23.0369 6.90572L11.1473 15.0586C10.917 15.2165 10.8164 15.5059 10.8991 15.7725C10.9818 16.0391 11.2283 16.2209 11.5075 16.2209H14.2676V27.8132C14.2676 28.1651 14.5527 28.4502 14.9045 28.4502H31.8897C32.2416 28.4502 32.5266 28.1651 32.5266 27.8132V16.2208H35.2867C35.5659 16.2208 35.8124 16.039 35.8952 15.7724C35.9777 15.5058 35.877 15.2165 35.6468 15.0586ZM31.8896 14.947C31.5377 14.947 31.2527 15.232 31.2527 15.5839V27.1763H15.5414V15.5838C15.5414 15.232 15.2563 14.9469 14.9044 14.9469H13.5626L23.397 8.2033L33.2315 14.9469H31.8896V14.947Z" fill="white"/>
<path d="M25.4352 19.0233C24.6194 19.0233 23.888 19.3909 23.397 19.9687C22.906 19.3909 22.1747 19.0233 21.3588 19.0233C20.8292 19.0233 20.3355 19.1787 19.9196 19.4452C19.8312 19.1994 19.5969 19.0233 19.3206 19.0233C18.9687 19.0233 18.6837 19.3084 18.6837 19.6603V25.0955C18.6837 25.4474 18.9687 25.7325 19.3206 25.7325C19.6725 25.7325 19.9576 25.4474 19.9576 25.0955V21.6985C19.9576 20.9258 20.5862 20.2973 21.3588 20.2973C22.1315 20.2973 22.7601 20.9258 22.7601 21.6985V25.0955C22.7601 25.4474 23.0452 25.7325 23.397 25.7325C23.7489 25.7325 24.034 25.4474 24.034 25.0955V21.6985C24.034 20.9258 24.6626 20.2973 25.4352 20.2973C26.2079 20.2973 26.8365 20.9258 26.8365 21.6985V25.0955C26.8365 25.4474 27.1216 25.7325 27.4734 25.7325C27.8253 25.7325 28.1104 25.4474 28.1104 25.0955V21.6985C28.1104 20.2234 26.9103 19.0233 25.4352 19.0233Z" fill="#FCDB50"/>
<path d="M27.4734 16.9851H26.2934L27.9238 15.3549C28.0431 15.2355 28.1102 15.0735 28.1102 14.9044C28.1102 13.804 27.2149 12.9087 26.1145 12.9087C25.014 12.9087 24.1188 13.804 24.1188 14.9044C24.1188 15.2563 24.4038 15.5414 24.7557 15.5414C25.1076 15.5414 25.3927 15.2563 25.3927 14.9044C25.3927 14.5643 25.6411 14.2619 25.9749 14.1962C26.3271 14.1269 26.6866 14.3366 26.7998 14.6773L24.3054 17.1717C23.9124 17.5648 24.2005 18.259 24.7558 18.259H27.4734C27.8253 18.259 28.1104 17.9739 28.1104 17.622C28.1104 17.2702 27.8253 16.9851 27.4734 16.9851Z" fill="#FCDB50"/>
<path d="M35.2866 30.5733H11.5074C11.1555 30.5733 10.8705 30.8583 10.8705 31.2102V35.9661C10.8705 36.318 11.1555 36.603 11.5074 36.603H27.8131C28.165 36.603 28.4501 36.318 28.4501 35.9661C28.4501 35.6142 28.165 35.3291 27.8131 35.3291H12.1444V31.8472H14.2675V33.2484C14.2675 33.6003 14.5526 33.8854 14.9045 33.8854C15.2563 33.8854 15.5414 33.6003 15.5414 33.2484V31.8472H17.6645V33.2484C17.6645 33.6003 17.9496 33.8854 18.3015 33.8854C18.6534 33.8854 18.9384 33.6003 18.9384 33.2484V31.8472H21.0616V33.2484C21.0616 33.6003 21.3466 33.8854 21.6985 33.8854C22.0504 33.8854 22.3355 33.6003 22.3355 33.2484V31.8472H24.4586V33.2484C24.4586 33.6003 24.7437 33.8854 25.0955 33.8854C25.4474 33.8854 25.7325 33.6003 25.7325 33.2484V31.8472H27.8556V33.2484C27.8556 33.6003 28.1407 33.8854 28.4926 33.8854C28.8445 33.8854 29.1295 33.6003 29.1295 33.2484V31.8472H31.2527V33.2484C31.2527 33.6003 31.5377 33.8854 31.8896 33.8854C32.2415 33.8854 32.5266 33.6003 32.5266 33.2484V31.8472H34.6497V35.3291H31.465C31.1131 35.3291 30.828 35.6142 30.828 35.9661C30.828 36.318 31.1131 36.603 31.465 36.603H35.2866C35.6385 36.603 35.9236 36.318 35.9236 35.9661V31.2101C35.9236 30.8583 35.6384 30.5733 35.2866 30.5733Z" fill="#FCDB50"/>
</svg>

<svg width="40" height="40" fill="none" xmlns="http://www.w3.org/2000/svg"><path d="M39.363 8.832A.637.637 0 0040 8.195V4.034a.637.637 0 00-.637-.637H8.017A4.04 4.04 0 004.034 0 4.039 4.039 0 000 4.034v21.741a.637.637 0 101.274 0V4.034a2.763 2.763 0 012.76-2.76 2.763 2.763 0 012.76 2.76v28.993a4.019 4.019 0 00-2.76-1.095 4.019 4.019 0 00-2.76 1.095v-3.759a.637.637 0 10-1.274 0v6.698A4.039 4.039 0 004.034 40h35.329a.637.637 0 00.637-.637V11.507a.637.637 0 10-1.274 0v27.22H4.034a2.763 2.763 0 01-2.76-2.761 2.763 2.763 0 012.76-2.76 2.763 2.763 0 012.76 2.76.637.637 0 101.274 0V4.671h30.658v3.524c0 .352.285.637.637.637z" fill="#fff"/><path d="M35.647 15.059l-11.89-8.153a.637.637 0 00-.72 0l-11.89 8.153a.637.637 0 00.36 1.162h2.76v11.592c0 .352.286.637.638.637H31.89a.637.637 0 00.637-.637V16.221h2.76a.637.637 0 00.36-1.162zm-3.757-.112a.637.637 0 00-.637.637v11.592H15.54V15.584a.637.637 0 00-.637-.637h-1.341l9.834-6.744 9.834 6.744h-1.34z" fill="#fff"/><path d="M25.435 19.023a2.67 2.67 0 00-2.038.946 2.67 2.67 0 00-3.477-.524.637.637 0 00-1.236.215v5.436a.637.637 0 101.274 0v-3.398a1.402 1.402 0 012.802 0v3.398a.637.637 0 101.274 0v-3.398a1.402 1.402 0 012.803 0v3.398a.637.637 0 101.273 0v-3.398c0-1.475-1.2-2.675-2.675-2.675zm2.038-2.038h-1.18l1.63-1.63a.637.637 0 00.187-.45 1.998 1.998 0 00-1.995-1.996 1.998 1.998 0 00-1.996 1.995.637.637 0 101.274 0 .73.73 0 01.582-.708.73.73 0 01.825.481l-2.495 2.495c-.393.393-.104 1.087.45 1.087h2.718a.637.637 0 100-1.274zm7.814 13.588h-23.78a.637.637 0 00-.636.637v4.756c0 .352.284.637.636.637h16.306a.637.637 0 100-1.274H12.144v-3.482h2.123v1.401a.637.637 0 101.274 0v-1.4h2.123v1.4a.637.637 0 101.274 0v-1.4h2.124v1.4a.637.637 0 101.273 0v-1.4h2.124v1.4a.637.637 0 101.274 0v-1.4h2.123v1.4a.637.637 0 101.273 0v-1.4h2.124v1.4a.637.637 0 101.274 0v-1.4h2.123v3.481h-3.185a.637.637 0 100 1.274h3.822a.637.637 0 00.637-.637V31.21a.637.637 0 00-.637-.637z" fill="#FCDB50"/></svg>
